svg/color/glmr.svg

<?xml version="1.0" encoding="UTF-8" ?>
<!DOCTYPE svg PUBLIC "-//W3C//DTD SVG 1.1//EN" "http://www.w3.org/Graphics/SVG/1.1/DTD/svg11.dtd">
<svg width="250pt" height="250pt" viewBox="0 0 250 250" version="1.1" xmlns="http://www.w3.org/2000/svg">
<g id="#ffffffff">
<path fill="#ffffff" opacity="1.00" d=" M 0.00 0.00 L 250.00 0.00 L 250.00 250.00 L 0.00 250.00 L 0.00 0.00 M 139.70 40.77 C 132.92 42.34 125.76 42.75 119.38 45.76 C 109.49 50.25 100.42 56.92 94.10 65.84 C 88.20 73.60 84.90 82.96 82.55 92.32 C 81.95 96.30 80.67 100.80 82.60 104.58 C 85.60 106.57 89.53 106.23 92.98 106.34 C 128.03 106.22 163.07 106.29 198.11 106.31 C 200.51 106.35 203.95 105.89 204.12 102.85 C 205.86 74.06 182.93 46.22 154.40 42.18 C 149.56 41.31 144.66 39.77 139.70 40.77 M 71.29 116.35 C 67.86 118.02 70.15 122.55 70.30 125.44 C 116.56 125.79 162.82 125.39 209.08 125.65 C 211.05 125.52 213.20 125.79 215.02 124.86 C 216.77 123.12 217.80 120.82 219.06 118.74 C 216.29 117.14 213.40 115.38 210.07 115.47 C 168.05 115.50 126.03 115.53 84.01 115.46 C 79.78 115.60 75.35 114.90 71.29 116.35 M 57.42 117.45 C 57.44 119.47 57.52 121.49 57.65 123.51 C 59.19 123.53 60.74 123.56 62.28 123.59 C 62.79 121.58 63.30 119.56 63.61 117.50 C 61.55 117.48 59.48 117.46 57.42 117.45 M 28.66 134.97 C 28.48 136.36 28.40 137.75 28.42 139.15 C 30.24 140.41 32.49 140.50 34.59 140.85 C 34.56 138.24 34.59 135.64 34.46 133.04 C 32.48 133.54 30.51 134.10 28.66 134.97 M 43.37 133.42 C 43.34 135.81 43.30 138.19 43.31 140.58 C 77.22 140.60 111.14 140.55 145.05 140.61 C 146.69 140.58 148.54 140.74 149.68 139.29 C 149.74 137.80 149.69 136.32 149.54 134.84 C 148.52 133.27 146.69 133.41 145.06 133.39 C 111.16 133.44 77.27 133.38 43.37 133.42 M 72.53 148.83 C 69.30 149.61 68.81 153.72 69.63 156.41 C 71.09 159.49 75.02 159.43 77.93 159.55 C 112.29 159.42 146.65 159.53 181.00 159.50 C 185.92 159.43 190.86 159.82 195.77 159.33 C 198.32 159.07 200.92 157.31 201.51 154.74 C 201.72 152.02 199.86 148.69 196.88 148.58 C 191.93 148.13 186.96 148.50 182.00 148.44 C 146.97 148.42 111.94 148.49 76.91 148.39 C 75.44 148.44 73.96 148.47 72.53 148.83 M 57.48 151.86 C 57.49 153.39 57.49 154.93 57.46 156.47 C 59.11 156.53 60.75 156.59 62.40 156.66 C 62.75 155.98 63.44 154.64 63.79 153.97 C 62.88 152.72 61.99 151.46 61.10 150.21 C 59.91 150.79 58.70 151.34 57.48 151.86 M 115.61 166.01 C 113.82 166.40 112.01 167.58 111.51 169.42 C 110.95 172.71 113.30 176.79 117.02 176.41 C 149.03 176.51 181.06 176.32 213.08 176.50 C 215.51 176.42 218.16 176.58 220.34 175.29 C 222.62 173.91 223.08 170.94 222.60 168.52 C 220.51 166.07 217.04 165.70 214.03 165.60 C 182.66 165.66 151.29 165.69 119.92 165.59 C 118.47 165.63 117.02 165.67 115.61 166.01 M 47.27 169.27 C 47.47 171.64 48.64 174.04 50.71 175.31 C 53.25 176.60 56.20 176.41 58.97 176.49 C 71.33 176.34 83.69 176.43 96.06 176.45 C 99.07 176.24 102.81 176.46 104.97 173.97 C 105.64 171.86 105.69 169.63 105.91 167.45 C 95.80 164.81 85.31 165.84 75.00 165.68 C 68.98 165.73 62.95 165.50 56.93 165.70 C 53.51 165.93 49.55 166.37 47.27 169.27 M 34.48 167.31 C 34.61 169.43 34.46 171.65 35.28 173.66 C 36.40 176.28 39.85 175.89 42.07 175.16 C 44.13 173.09 43.28 169.84 43.47 167.21 C 40.47 167.21 37.48 167.24 34.48 167.31 M 120.47 184.43 C 120.46 186.49 120.45 188.55 120.43 190.61 C 122.14 190.62 123.86 190.62 125.58 190.63 C 125.55 188.56 125.53 186.49 125.52 184.42 C 123.84 184.43 122.15 184.43 120.47 184.43 M 133.42 184.34 C 133.43 186.68 133.43 189.01 133.45 191.35 C 153.30 191.67 173.16 191.36 193.01 191.52 C 196.18 191.44 199.64 191.93 202.43 190.06 C 202.58 188.37 202.57 186.67 202.40 184.99 C 198.90 183.05 194.83 183.58 191.00 183.53 C 176.67 183.57 162.33 183.54 148.00 183.55 C 143.14 183.58 138.20 183.20 133.42 184.34 M 97.38 199.42 C 93.64 199.93 92.54 204.13 93.61 207.26 C 96.30 209.19 99.72 209.56 102.94 209.56 C 120.31 209.45 137.68 209.41 155.04 209.57 C 157.55 209.53 160.15 209.53 162.49 208.52 C 165.79 207.69 164.95 203.42 164.07 201.01 C 161.84 198.58 158.07 198.92 155.05 198.62 C 139.04 198.60 123.02 198.72 107.00 198.58 C 103.78 198.60 100.51 198.55 97.38 199.42 M 81.04 205.07 C 82.00 206.03 82.97 207.00 83.94 207.97 C 85.47 207.02 87.01 206.09 88.53 205.13 C 87.00 203.52 85.45 201.94 83.88 200.37 C 82.92 201.93 81.98 203.51 81.04 205.07 Z" />
</g>
<g id="#53cbc8ff">
<path fill="#53cbc8" opacity="1.00" d=" M 139.70 40.77 C 144.66 39.77 149.56 41.31 154.40 42.18 C 182.93 46.22 205.86 74.06 204.12 102.85 C 203.95 105.89 200.51 106.35 198.11 106.31 C 163.07 106.29 128.03 106.22 92.98 106.34 C 89.53 106.23 85.60 106.57 82.60 104.58 C 80.67 100.80 81.95 96.30 82.55 92.32 C 84.90 82.96 88.20 73.60 94.10 65.84 C 100.42 56.92 109.49 50.25 119.38 45.76 C 125.76 42.75 132.92 42.34 139.70 40.77 Z" />
</g>
<g id="#f08ebfff">
<path fill="#f08ebf" opacity="1.00" d=" M 71.29 116.35 C 75.35 114.90 79.78 115.60 84.01 115.46 C 126.03 115.53 168.05 115.50 210.07 115.47 C 213.40 115.38 216.29 117.14 219.06 118.74 C 217.80 120.82 216.77 123.12 215.02 124.86 C 213.20 125.79 211.05 125.52 209.08 125.65 C 162.82 125.39 116.56 125.79 70.30 125.44 C 70.15 122.55 67.86 118.02 71.29 116.35 M 71.30 118.05 C 71.45 119.79 71.61 121.54 71.77 123.29 C 119.12 123.57 166.48 123.29 213.83 123.43 C 214.18 121.68 214.51 119.94 214.84 118.19 C 211.57 117.82 208.29 117.60 205.01 117.60 C 168.01 117.66 131.01 117.61 94.01 117.63 C 86.44 117.67 78.85 117.36 71.30 118.05 Z" />
<path fill="#f08ebf" opacity="1.00" d=" M 72.53 148.83 C 73.96 148.47 75.44 148.44 76.91 148.39 C 111.94 148.49 146.97 148.42 182.00 148.44 C 186.96 148.50 191.93 148.13 196.88 148.58 C 199.86 148.69 201.72 152.02 201.51 154.74 C 200.92 157.31 198.32 159.07 195.77 159.33 C 190.86 159.82 185.92 159.43 181.00 159.50 C 146.65 159.53 112.29 159.42 77.93 159.55 C 75.02 159.43 71.09 159.49 69.63 156.41 C 68.81 153.72 69.30 149.61 72.53 148.83 M 73.36 152.26 C 72.01 152.72 71.23 153.69 71.00 155.17 C 76.81 157.08 83.00 156.31 89.00 156.40 C 123.35 156.40 157.70 156.35 192.05 156.44 C 194.64 156.46 197.49 156.17 199.20 153.95 C 195.57 150.64 190.45 151.65 185.99 151.52 C 153.00 151.62 120.00 151.57 87.00 151.54 C 82.47 151.66 77.79 151.00 73.36 152.26 Z" />
<path fill="#f08ebf" opacity="1.00" d=" M 115.61 166.01 C 117.02 165.67 118.47 165.63 119.92 165.59 C 151.29 165.69 182.66 165.66 214.03 165.60 C 217.04 165.70 220.51 166.07 222.60 168.52 C 223.08 170.94 222.62 173.91 220.34 175.29 C 218.16 176.58 215.51 176.42 213.08 176.50 C 181.06 176.32 149.03 176.51 117.02 176.41 C 113.30 176.79 110.95 172.71 111.51 169.42 C 112.01 167.58 113.82 166.40 115.61 166.01 M 114.50 168.47 C 114.44 169.51 114.33 171.59 114.28 172.63 C 117.83 173.09 121.40 173.45 124.99 173.47 C 154.03 173.42 183.07 173.42 212.11 173.48 C 215.34 173.81 217.97 171.81 220.34 169.91 C 213.42 167.77 206.13 168.55 199.00 168.48 C 170.83 168.48 142.66 168.48 114.50 168.47 Z" />
<path fill="#f08ebf" opacity="1.00" d=" M 47.27 169.27 C 49.55 166.37 53.51 165.93 56.93 165.70 C 62.95 165.50 68.98 165.73 75.00 165.68 C 85.31 165.84 95.80 164.81 105.91 167.45 C 105.69 169.63 105.64 171.86 104.97 173.97 C 102.81 176.46 99.07 176.24 96.06 176.45 C 83.69 176.43 71.33 176.34 58.97 176.49 C 56.20 176.41 53.25 176.60 50.71 175.31 C 48.64 174.04 47.47 171.64 47.27 169.27 M 51.46 172.04 C 54.67 173.84 58.46 173.46 61.99 173.51 C 73.36 173.29 84.73 173.59 96.09 173.43 C 99.06 173.54 101.36 171.46 103.64 169.87 C 96.93 167.84 89.90 168.51 83.00 168.47 C 73.31 168.66 63.61 168.13 53.93 168.63 C 51.81 168.32 50.61 170.13 51.46 172.04 Z" />
<path fill="#f08ebf" opacity="1.00" d=" M 34.48 167.31 C 37.48 167.24 40.47 167.21 43.47 167.21 C 43.28 169.84 44.13 173.09 42.07 175.16 C 39.85 175.89 36.40 176.28 35.28 173.66 C 34.46 171.65 34.61 169.43 34.48 167.31 M 36.76 168.80 C 36.66 169.98 36.56 171.17 36.47 172.35 C 38.15 172.38 39.84 172.41 41.52 172.45 C 41.50 171.13 41.48 169.81 41.46 168.49 C 39.89 168.60 38.32 168.69 36.76 168.80 Z" />
<path fill="#f08ebf" opacity="1.00" d=" M 97.38 199.42 C 100.51 198.55 103.78 198.60 107.00 198.58 C 123.02 198.72 139.04 198.60 155.05 198.62 C 158.07 198.92 161.84 198.58 164.07 201.01 C 164.95 203.42 165.79 207.69 162.49 208.52 C 160.15 209.53 157.55 209.53 155.04 209.57 C 137.68 209.41 120.31 209.45 102.94 209.56 C 99.72 209.56 96.30 209.19 93.61 207.26 C 92.54 204.13 93.64 199.93 97.38 199.42 M 94.70 205.04 C 100.91 207.23 107.54 206.58 114.00 206.60 C 128.33 206.57 142.66 206.60 156.98 206.63 C 159.31 206.33 163.22 207.28 162.99 203.75 C 160.20 202.38 157.05 202.34 154.01 202.34 C 136.98 202.52 119.93 202.37 102.90 202.39 C 99.92 202.28 97.24 203.69 94.70 205.04 Z" />
</g>
<g id="#e21a7eff">
<path fill="#e21a7e" opacity="1.00" d=" M 57.42 117.45 C 59.48 117.46 61.55 117.48 63.61 117.50 C 63.30 119.56 62.79 121.58 62.28 123.59 C 60.74 123.56 59.19 123.53 57.65 123.51 C 57.52 121.49 57.44 119.47 57.42 117.45 Z" />
<path fill="#e21a7e" opacity="1.00" d=" M 71.30 118.05 C 78.85 117.36 86.44 117.67 94.01 117.63 C 131.01 117.61 168.01 117.66 205.01 117.60 C 208.29 117.60 211.57 117.82 214.84 118.19 C 214.51 119.94 214.18 121.68 213.83 123.43 C 166.48 123.29 119.12 123.57 71.77 123.29 C 71.61 121.54 71.45 119.79 71.30 118.05 Z" />
<path fill="#e21a7e" opacity="1.00" d=" M 28.66 134.97 C 30.51 134.10 32.48 133.54 34.46 133.04 C 34.59 135.64 34.56 138.24 34.59 140.85 C 32.49 140.50 30.24 140.41 28.42 139.15 C 28.40 137.75 28.48 136.36 28.66 134.97 Z" />
<path fill="#e21a7e" opacity="1.00" d=" M 43.37 133.42 C 77.27 133.38 111.16 133.44 145.06 133.39 C 146.69 133.41 148.52 133.27 149.54 134.84 C 149.69 136.32 149.74 137.80 149.68 139.29 C 148.54 140.74 146.69 140.58 145.05 140.61 C 111.14 140.55 77.22 140.60 43.31 140.58 C 43.30 138.19 43.34 135.81 43.37 133.42 Z" />
<path fill="#e21a7e" opacity="1.00" d=" M 57.48 151.86 C 58.70 151.34 59.91 150.79 61.10 150.21 C 61.99 151.46 62.88 152.72 63.79 153.97 C 63.44 154.64 62.75 155.98 62.40 156.66 C 60.75 156.59 59.11 156.53 57.46 156.47 C 57.49 154.93 57.49 153.39 57.48 151.86 Z" />
<path fill="#e21a7e" opacity="1.00" d=" M 73.36 152.26 C 77.79 151.00 82.47 151.66 87.00 151.54 C 120.00 151.57 153.00 151.62 185.99 151.52 C 190.45 151.65 195.57 150.64 199.20 153.95 C 197.49 156.17 194.64 156.46 192.05 156.44 C 157.70 156.35 123.35 156.40 89.00 156.40 C 83.00 156.31 76.81 157.08 71.00 155.17 C 71.23 153.69 72.01 152.72 73.36 152.26 Z" />
<path fill="#e21a7e" opacity="1.00" d=" M 36.76 168.80 C 38.32 168.69 39.89 168.60 41.46 168.49 C 41.48 169.81 41.50 171.13 41.52 172.45 C 39.84 172.41 38.15 172.38 36.47 172.35 C 36.56 171.17 36.66 169.98 36.76 168.80 Z" />
<path fill="#e21a7e" opacity="1.00" d=" M 51.46 172.04 C 50.61 170.13 51.81 168.32 53.93 168.63 C 63.61 168.13 73.31 168.66 83.00 168.47 C 89.90 168.51 96.93 167.84 103.64 169.87 C 101.36 171.46 99.06 173.54 96.09 173.43 C 84.73 173.59 73.36 173.29 61.99 173.51 C 58.46 173.46 54.67 173.84 51.46 172.04 Z" />
<path fill="#e21a7e" opacity="1.00" d=" M 114.50 168.47 C 142.66 168.48 170.83 168.48 199.00 168.48 C 206.13 168.55 213.42 167.77 220.34 169.91 C 217.97 171.81 215.34 173.81 212.11 173.48 C 183.07 173.42 154.03 173.42 124.99 173.47 C 121.40 173.45 117.83 173.09 114.28 172.63 C 114.33 171.59 114.44 169.51 114.50 168.47 Z" />
<path fill="#e21a7e" opacity="1.00" d=" M 120.47 184.43 C 122.15 184.43 123.84 184.43 125.52 184.42 C 125.53 186.49 125.55 188.56 125.58 190.63 C 123.86 190.62 122.14 190.62 120.43 190.61 C 120.45 188.55 120.46 186.49 120.47 184.43 Z" />
<path fill="#e21a7e" opacity="1.00" d=" M 133.42 184.34 C 138.20 183.20 143.14 183.58 148.00 183.55 C 162.33 183.54 176.67 183.57 191.00 183.53 C 194.83 183.58 198.90 183.05 202.40 184.99 C 202.57 186.67 202.58 188.37 202.43 190.06 C 199.64 191.93 196.18 191.44 193.01 191.52 C 173.16 191.36 153.30 191.67 133.45 191.35 C 133.43 189.01 133.43 186.68 133.42 184.34 Z" />
<path fill="#e21a7e" opacity="1.00" d=" M 81.04 205.07 C 81.98 203.51 82.92 201.93 83.88 200.37 C 85.45 201.94 87.00 203.52 88.53 205.13 C 87.01 206.09 85.47 207.02 83.94 207.97 C 82.97 207.00 82.00 206.03 81.04 205.07 Z" />
<path fill="#e21a7e" opacity="1.00" d=" M 94.70 205.04 C 97.24 203.69 99.92 202.28 102.90 202.39 C 119.93 202.37 136.98 202.52 154.01 202.34 C 157.05 202.34 160.20 202.38 162.99 203.75 C 163.22 207.28 159.31 206.33 156.98 206.63 C 142.66 206.60 128.33 206.57 114.00 206.60 C 107.54 206.58 100.91 207.23 94.70 205.04 Z" />
</g>
</svg>

<?xml version="1.0" encoding="utf-8"?>
<!-- Generator: Adobe Illustrator 26.0.3, SVG Export Plug-In . SVG Version: 6.00 Build 0)  -->
<svg version="1.1" id="Layer_1" xmlns="http://www.w3.org/2000/svg" xmlns:xlink="http://www.w3.org/1999/xlink" x="0px" y="0px"
	 viewBox="0 0 250 250" style="enable-background:new 0 0 250 250;" xml:space="preserve">
<style type="text/css">
	.st0{fill:#53CBC8;}
	.st1{fill:#F08EBF;}
	.st2{fill:#E21A7E;}
</style>
<g id="_x23_53cbc8ff">
	<path class="st0" d="M139.7,40.8c5-1,9.9,0.5,14.7,1.4c28.5,4,51.5,31.9,49.7,60.7c-0.2,3-3.6,3.5-6,3.5c-35,0-70.1-0.1-105.1,0
		c-3.5-0.1-7.4,0.2-10.4-1.8c-1.9-3.8-0.7-8.3,0-12.3c2.3-9.4,5.6-18.7,11.5-26.5c6.3-8.9,15.4-15.6,25.3-20.1
		C125.8,42.8,132.9,42.3,139.7,40.8z"/>
</g>
<g id="_x23_f08ebfff">
	<path class="st1" d="M71.3,116.3c4.1-1.4,8.5-0.8,12.7-0.9c42,0.1,84,0,126.1,0c3.3-0.1,6.2,1.7,9,3.3c-1.3,2.1-2.3,4.4-4,6.1
		c-1.8,0.9-4,0.7-5.9,0.8c-46.3-0.3-92.5,0.1-138.8-0.2C70.2,122.6,67.9,118,71.3,116.3 M71.3,118.1c0.1,1.7,0.3,3.5,0.5,5.2
		c47.4,0.3,94.7,0,142.1,0.1c0.3-1.8,0.7-3.5,1-5.2c-3.3-0.4-6.6-0.6-9.8-0.6c-37,0.1-74,0-111,0C86.4,117.7,78.8,117.4,71.3,118.1z
		"/>
	<path class="st1" d="M72.5,148.8c1.4-0.4,2.9-0.4,4.4-0.4c35,0.1,70.1,0,105.1,0.1c5,0.1,9.9-0.3,14.9,0.1c3,0.1,4.8,3.4,4.6,6.2
		c-0.6,2.6-3.2,4.3-5.7,4.6c-4.9,0.5-9.9,0.1-14.8,0.2c-34.4,0-68.7-0.1-103.1,0.1c-2.9-0.1-6.8-0.1-8.3-3.1
		C68.8,153.7,69.3,149.6,72.5,148.8 M73.4,152.3c-1.3,0.5-2.1,1.4-2.4,2.9c5.8,1.9,12,1.1,18,1.2c34.3,0,68.7,0,103.1,0
		c2.6,0,5.4-0.3,7.1-2.5c-3.6-3.3-8.8-2.3-13.2-2.4c-33,0.1-66,0.1-99,0C82.5,151.7,77.8,151,73.4,152.3z"/>
	<path class="st1" d="M115.6,166c1.4-0.3,2.9-0.4,4.3-0.4c31.4,0.1,62.7,0.1,94.1,0c3,0.1,6.5,0.5,8.6,2.9c0.5,2.4,0,5.4-2.3,6.8
		c-2.2,1.3-4.8,1.1-7.3,1.2c-32-0.2-64.1,0-96.1-0.1c-3.7,0.4-6.1-3.7-5.5-7C112,167.6,113.8,166.4,115.6,166 M114.5,168.5
		c-0.1,1-0.2,3.1-0.2,4.2c3.6,0.5,7.1,0.8,10.7,0.8c29-0.1,58.1-0.1,87.1,0c3.2,0.3,5.9-1.7,8.2-3.6c-6.9-2.1-14.2-1.4-21.3-1.4
		C170.8,168.5,142.7,168.5,114.5,168.5z"/>
	<path class="st1" d="M47.3,169.3c2.3-2.9,6.2-3.3,9.7-3.6c6-0.2,12.1,0,18.1,0c10.3,0.2,20.8-0.9,30.9,1.8
		c-0.2,2.2-0.3,4.4-0.9,6.5c-2.2,2.5-5.9,2.3-8.9,2.5c-12.4,0-24.7-0.1-37.1,0c-2.8-0.1-5.7,0.1-8.3-1.2
		C48.6,174,47.5,171.6,47.3,169.3 M51.5,172c3.2,1.8,7,1.4,10.5,1.5c11.4-0.2,22.7,0.1,34.1-0.1c3,0.1,5.3-2,7.6-3.6
		c-6.7-2-13.7-1.4-20.6-1.4c-9.7,0.2-19.4-0.3-29.1,0.2C51.8,168.3,50.6,170.1,51.5,172z"/>
	<path class="st1" d="M34.5,167.3c3-0.1,6-0.1,9-0.1c-0.2,2.6,0.7,5.9-1.4,7.9c-2.2,0.7-5.7,1.1-6.8-1.5
		C34.5,171.6,34.6,169.4,34.5,167.3 M36.8,168.8c-0.1,1.2-0.2,2.4-0.3,3.6c1.7,0,3.4,0.1,5,0.1c0-1.3,0-2.6-0.1-4
		C39.9,168.6,38.3,168.7,36.8,168.8z"/>
	<path class="st1" d="M97.4,199.4c3.1-0.9,6.4-0.8,9.6-0.8c16,0.1,32,0,48.1,0c3,0.3,6.8,0,9,2.4c0.9,2.4,1.7,6.7-1.6,7.5
		c-2.3,1-4.9,1-7.5,1.1c-17.4-0.2-34.7-0.1-52.1,0c-3.2,0-6.6-0.4-9.3-2.3C92.5,204.1,93.6,199.9,97.4,199.4 M94.7,205
		c6.2,2.2,12.8,1.5,19.3,1.6c14.3,0,28.7,0,43,0c2.3-0.3,6.2,0.6,6-2.9c-2.8-1.4-5.9-1.4-9-1.4c-17,0.2-34.1,0-51.1,0.1
		C99.9,202.3,97.2,203.7,94.7,205z"/>
</g>
<g id="_x23_e21a7eff">
	<path class="st2" d="M57.4,117.4c2.1,0,4.1,0,6.2,0.1c-0.3,2.1-0.8,4.1-1.3,6.1c-1.5,0-3.1-0.1-4.6-0.1
		C57.5,121.5,57.4,119.5,57.4,117.4z"/>
	<path class="st2" d="M71.3,118.1c7.5-0.7,15.1-0.4,22.7-0.4c37,0,74,0,111,0c3.3,0,6.6,0.2,9.8,0.6c-0.3,1.8-0.7,3.5-1,5.2
		c-47.4-0.1-94.7,0.1-142.1-0.1C71.6,121.5,71.4,119.8,71.3,118.1z"/>
	<path class="st2" d="M28.7,135c1.9-0.9,3.8-1.4,5.8-1.9c0.1,2.6,0.1,5.2,0.1,7.8c-2.1-0.4-4.4-0.4-6.2-1.7
		C28.4,137.8,28.5,136.4,28.7,135z"/>
	<path class="st2" d="M43.4,133.4c33.9,0,67.8,0,101.7,0c1.6,0,3.5-0.1,4.5,1.4c0.2,1.5,0.2,3,0.1,4.4c-1.1,1.5-3,1.3-4.6,1.3
		c-33.9-0.1-67.8,0-101.7,0C43.3,138.2,43.3,135.8,43.4,133.4z"/>
	<path class="st2" d="M57.5,151.9c1.2-0.5,2.4-1.1,3.6-1.6c0.9,1.2,1.8,2.5,2.7,3.8c-0.4,0.7-1,2-1.4,2.7c-1.7-0.1-3.3-0.1-4.9-0.2
		C57.5,154.9,57.5,153.4,57.5,151.9z"/>
	<path class="st2" d="M73.4,152.3c4.4-1.3,9.1-0.6,13.6-0.7c33,0,66,0.1,99,0c4.5,0.1,9.6-0.9,13.2,2.4c-1.7,2.2-4.6,2.5-7.1,2.5
		c-34.4-0.1-68.7,0-103.1,0c-6-0.1-12.2,0.7-18-1.2C71.2,153.7,72,152.7,73.4,152.3z"/>
	<path class="st2" d="M36.8,168.8c1.6-0.1,3.1-0.2,4.7-0.3c0,1.3,0,2.6,0.1,4c-1.7,0-3.4-0.1-5-0.1C36.6,171.2,36.7,170,36.8,168.8z
		"/>
	<path class="st2" d="M51.5,172c-0.8-1.9,0.4-3.7,2.5-3.4c9.7-0.5,19.4,0,29.1-0.2c6.9,0,13.9-0.6,20.6,1.4
		c-2.3,1.6-4.6,3.7-7.6,3.6c-11.4,0.2-22.7-0.1-34.1,0.1C58.5,173.5,54.7,173.8,51.5,172z"/>
	<path class="st2" d="M114.5,168.5c28.2,0,56.3,0,84.5,0c7.1,0.1,14.4-0.7,21.3,1.4c-2.4,1.9-5,3.9-8.2,3.6c-29-0.1-58.1-0.1-87.1,0
		c-3.6,0-7.2-0.4-10.7-0.8C114.3,171.6,114.4,169.5,114.5,168.5z"/>
	<path class="st2" d="M120.5,184.4c1.7,0,3.4,0,5,0c0,2.1,0,4.1,0.1,6.2c-1.7,0-3.4,0-5.2,0C120.4,188.6,120.5,186.5,120.5,184.4z"
		/>
	<path class="st2" d="M133.4,184.3c4.8-1.1,9.7-0.8,14.6-0.8c14.3,0,28.7,0,43,0c3.8,0.1,7.9-0.5,11.4,1.5c0.2,1.7,0.2,3.4,0,5.1
		c-2.8,1.9-6.2,1.4-9.4,1.5c-19.8-0.2-39.7,0.1-59.6-0.2C133.4,189,133.4,186.7,133.4,184.3z"/>
	<path class="st2" d="M81,205.1c0.9-1.6,1.9-3.1,2.8-4.7c1.6,1.6,3.1,3.2,4.7,4.8c-1.5,1-3.1,1.9-4.6,2.8C83,207,82,206,81,205.1z"
		/>
	<path class="st2" d="M94.7,205c2.5-1.3,5.2-2.8,8.2-2.6c17,0,34.1,0.1,51.1-0.1c3,0,6.2,0,9,1.4c0.2,3.5-3.7,2.6-6,2.9
		c-14.3,0-28.6-0.1-43,0C107.5,206.6,100.9,207.2,94.7,205z"/>
</g>
</svg>
